smart-lab/build/images/icons/qn-filters/calendar_blue.svg

<svg width="16" height="16" viewBox="0 0 16 16" fill="none" xmlns="http://www.w3.org/2000/svg">
<path d="M14.2857 1.71428H12.5714V0.571439C12.5714 0.255837 12.3156 0 12 0C11.6844 0 11.4286 0.255837 11.4286 0.571439V1.71428H4.57141V0.571439C4.57141 0.255837 4.31558 0 4.00001 0C3.68444 0 3.42857 0.255837 3.42857 0.571439V1.71428H1.71428C0.767511 1.71428 0 2.4818 0 3.42857V14.2857C0 15.2325 0.767511 16 1.71428 16H14.2857C15.2325 16 16 15.2325 16 14.2857V3.42857C16 2.4818 15.2325 1.71428 14.2857 1.71428ZM14.8571 14.2857C14.8571 14.6013 14.6013 14.8572 14.2857 14.8572H1.71428C1.39868 14.8572 1.14285 14.6013 1.14285 14.2857V6.85714H14.8571V14.2857ZM14.8571 5.71429H1.14285V3.42857C1.14285 3.11297 1.39868 2.85713 1.71428 2.85713H3.42857V3.99997C3.42857 4.31558 3.68441 4.57141 4.00001 4.57141C4.31561 4.57141 4.57145 4.31558 4.57145 3.99997V2.85713H11.4286V3.99997C11.4286 4.31558 11.6844 4.57141 12 4.57141C12.3156 4.57141 12.5715 4.31558 12.5715 3.99997V2.85713H14.2857C14.6014 2.85713 14.8572 3.11297 14.8572 3.42857V5.71429H14.8571Z" fill="#4F91CD"/>
<path d="M4.57122 8H3.42837C3.11277 8 2.85693 8.25584 2.85693 8.57144C2.85693 8.88704 3.11277 9.14288 3.42837 9.14288H4.57122C4.88682 9.14288 5.14266 8.88704 5.14266 8.57144C5.14266 8.25584 4.88682 8 4.57122 8Z" fill="#4F91CD"/>
<path d="M8.57122 8H7.42837C7.11277 8 6.85693 8.25584 6.85693 8.57144C6.85693 8.88704 7.11277 9.14288 7.42837 9.14288H8.57122C8.88682 9.14288 9.14266 8.88704 9.14266 8.57144C9.14266 8.25584 8.88682 8 8.57122 8Z" fill="#4F91CD"/>
<path d="M12.5712 8H11.4284C11.1128 8 10.8569 8.25584 10.8569 8.57144C10.8569 8.88704 11.1128 9.14288 11.4284 9.14288H12.5712C12.8868 9.14288 13.1427 8.88704 13.1427 8.57144C13.1426 8.25584 12.8868 8 12.5712 8Z" fill="#4F91CD"/>
<path d="M4.57122 10.2856H3.42837C3.11277 10.2856 2.85693 10.5415 2.85693 10.8571C2.85693 11.1727 3.11277 11.4285 3.42837 11.4285H4.57122C4.88682 11.4285 5.14266 11.1727 5.14266 10.8571C5.14266 10.5415 4.88682 10.2856 4.57122 10.2856Z" fill="#4F91CD"/>
<path d="M8.57122 10.2856H7.42837C7.11277 10.2856 6.85693 10.5415 6.85693 10.8571C6.85693 11.1727 7.11277 11.4285 7.42837 11.4285H8.57122C8.88682 11.4285 9.14266 11.1727 9.14266 10.8571C9.14266 10.5415 8.88682 10.2856 8.57122 10.2856Z" fill="#4F91CD"/>
<path d="M12.5712 10.2856H11.4284C11.1128 10.2856 10.8569 10.5415 10.8569 10.8571C10.8569 11.1727 11.1128 11.4285 11.4284 11.4285H12.5712C12.8868 11.4285 13.1427 11.1727 13.1427 10.8571C13.1426 10.5415 12.8868 10.2856 12.5712 10.2856Z" fill="#4F91CD"/>
<path d="M4.57122 12.5715H3.42837C3.11277 12.5715 2.85693 12.8274 2.85693 13.143C2.85693 13.4586 3.11277 13.7144 3.42837 13.7144H4.57122C4.88682 13.7144 5.14266 13.4585 5.14266 13.1429C5.14266 12.8273 4.88682 12.5715 4.57122 12.5715Z" fill="#4F91CD"/>
<path d="M8.57122 12.5715H7.42837C7.11277 12.5715 6.85693 12.8274 6.85693 13.143C6.85693 13.4586 7.11277 13.7144 7.42837 13.7144H8.57122C8.88682 13.7144 9.14266 13.4586 9.14266 13.143C9.14266 12.8274 8.88682 12.5715 8.57122 12.5715Z" fill="#4F91CD"/>
<path d="M12.5712 12.5715H11.4284C11.1128 12.5715 10.8569 12.8274 10.8569 13.143C10.8569 13.4586 11.1128 13.7144 11.4284 13.7144H12.5712C12.8868 13.7144 13.1427 13.4586 13.1427 13.143C13.1427 12.8274 12.8868 12.5715 12.5712 12.5715Z" fill="#4F91CD"/>
</svg>

<svg width="16" height="16" fill="none" xmlns="http://www.w3.org/2000/svg"><path d="M14.286 1.714H12.57V.571a.571.571 0 10-1.142 0v1.143H4.57V.571a.571.571 0 10-1.142 0v1.143H1.714C.768 1.714 0 2.482 0 3.43v10.857C0 15.233.768 16 1.714 16h12.572c.947 0 1.714-.768 1.714-1.714V3.429c0-.947-.768-1.715-1.714-1.715zm.571 12.572a.571.571 0 01-.571.571H1.714a.571.571 0 01-.571-.571V6.857h13.714v7.429zm0-8.572H1.143V3.43c0-.316.256-.572.571-.572H3.43V4a.571.571 0 101.14 0V2.857h6.858V4a.571.571 0 101.143 0V2.857h1.714c.315 0 .571.256.571.572v2.285z" fill="#4F91CD"/><path d="M4.571 8H3.428a.571.571 0 100 1.143h1.143a.571.571 0 100-1.143zm4 0H7.428a.571.571 0 100 1.143h1.143a.571.571 0 100-1.143zm4 0h-1.143a.571.571 0 100 1.143h1.143a.571.571 0 100-1.143zm-8 2.286H3.428a.571.571 0 000 1.143h1.143a.571.571 0 100-1.143zm4 0H7.428a.571.571 0 000 1.143h1.143a.571.571 0 100-1.143zm4 0h-1.143a.572.572 0 000 1.143h1.143a.571.571 0 100-1.143zm-8 2.286H3.428a.571.571 0 000 1.142h1.143a.571.571 0 000-1.143zm4 0H7.428a.571.571 0 000 1.142h1.143a.571.571 0 100-1.143zm4 0h-1.143a.572.572 0 000 1.142h1.143a.571.571 0 100-1.143z" fill="#4F91CD"/></svg>
